X:1
T:Rocky Road to Dublin
T:Rocky Road to Dublin
T:D. K. Gavan
C:D. K. Gavan
%%score 1 2 3 { 4 | 5 }
L:1/8
Q:1/4=180
M:9/8
K:G
V:1 treble nm="Irish Flute" snm="Ir. Fl."
V:2 treble nm="Pan Flute" snm="Pn. Fl."
V:3 treble nm="Violin" snm="Vln."
V:4 treble nm="Accordion" snm="Acc."
V:5 bass 
V:1
|:"^Presto""^Roland FR4XUPG6-02 Tin Whistle" .e.ee d2 B A2 G | E2 A A2 B c2 d | .e.ee d2 B A2 G | %3
 B2 G G2 A B2 d :: eea a2 f g2 e | e2 a a2 f g2 e | e2 a a2 f g2 e | d2 B G2 A B2 d :| %8
 .e2 e d2 B A2 G | E2 A A2 B c2 d | .e2 e d2 B A2 G | E2 A A2 B c2 d | e2 e ddB GEB | A8 z | z9 | %15
 z9 |: z9 | z9 | z9 | z9 :: z9 | z9 | z9 | z9 :| z9 | z9 | z9 | z9 | z9 | z9 | z9 | z9 |: z9 | z9 | %34
 z9 | z9 :: z9 | z9 | z9 | z9 :| z9 | z9 | z9 | z9 | z9 | z9 | z9 | z9 |: z9 | z9 | z9 | z9 :: z9 | %53
 z9 | z9 | z9 :| z9 | z9 | z9 | z9 | z9 | z9 | z9 | z9 |] %64
V:2
|: z9 | z9 | z9 | z9 :: z9 | z9 | z9 | z9 :| z9 | z9 | z9 | z9 | z9 | z9 | z9 | z9 |: %16
"^Roland FR4XUPG6-05 Pan Flute" .e.ee [Ad]2 B [EG]2 A | E2 A [EA]2 B [Ac]2 d | %18
 [ce]2 e [Ad]2 B [EA]2 G | [GB]2 G [DG]2 A [GB]2 d :: .e.ea [ea]2 f [dg]2 e | %21
 [ce]2 a [ea]2 f [dg]2 e | [ce]2 a [ea]2 f [dg]2 e | [Bd]2 B [DG]2 A BAG :| %24
 .[ce]2 e [Ad]2 B [EA]2 G | E2 A [EA]2 B [Ac]2 d | .[ce]2 e [Ad]2 B [EA]2 G | %27
 E2 A [EA]2 B [Ac]2 d | [Be]2 e ddB GEB | [EA]8 z | z9 | z9 |: z9 | z9 | z9 | z9 :: z9 | z9 | z9 | %39
 z9 :| z9 | z9 | z9 | z9 | z9 | z9 | z9 | z9 |: z9 | z9 | z9 | z9 :: z9 | z9 | z9 | z9 :| z9 | z9 | %58
 z9 | z9 | z9 | z9 | z9 | z9 |] %64
V:3
|: z9 | z9 | z9 | z9 :: z9 | z9 | z9 | z9 :| z9 | z9 | z9 | z9 | z9 | z9 | z9 | z9 |: z9 | z9 | %18
 z9 | z9 :: z9 | z9 | z9 | z9 :| z9 | z9 | z9 | z9 | z9 | z9 | z9 | z9 |: %32
"^Roland FR4XUPG6-01 Violin" .e.ee [Ad]2 B [EG]2 A | E2 A [EA]2 B [Ac]2 d | .e.ee [Ad]2 B [EA]2 G | %35
 ABG [DG]2 A [GB]2 d :: .e.ea [ea]2 f [dg]2 e | [ce]2 a [ea]2 f [dg]2 e | [ce]2 a [ea]2 f [dg]2 e | %39
 [Bd]2 B [DG]2 A BAG :| .[ce]2 e [Ad]2 B [EA]2 G | E2 A [EA]2 B [Ac]2 d | %42
 .[ce]2 e [Ad]2 B [EA]2 G | E2 A [EA]2 B [Ac]2 d | [Be]2 e ddB GEB | [EA]8 z | z9 | z9 |: z9 | z9 | %50
 z9 | z9 :: z9 | z9 | z9 | z9 :| z9 | z9 | z9 | z9 | z9 | z9 | z9 | z9 |] %64
V:4
|: .e.ee d2 B A2 G | E2 A A2 B c2 d | .e.ee d2 B A2 G | B2 G G2 A B2 d :: eea a2 f g2 e | %5
w: In me- rry month of Ju- ne|from me home I start- ed.|Left all the girls of Tu- am|near- ly bro- ken heart- ed.|Then off to reap the corn, *|
w: Sal- ut- ed fa- ther de- ar,|kissed me dar- lin' mo- ther.|Drank up a pint of beer me|grief and tears to smo- ther.|A brand new pair of brogues, *|
 e2 a a2 f g2 e | e2 a a2 f g2 e | d2 B G2 A B2 d :| .e2 e d2 B A2 G | E2 A A2 B c2 d | %10
w: leave where I was born. *|Cut a stout black- thorn, to|ba- nish ghosts and gob- lins.|One, two three, four, five, *|hunt the hare and turn her.|
w: rat- tlin' o'er the bogs. *|Fright- ning all the dogs onthe|rock- y road to Dub- lin.|||
 .e2 e d2 B A2 G | E2 A A2 B c2 d | e2 e ddB GEB | A8 z | z9 | z9 |: .e.ee [Ad]2 B [EG]2 A | %17
w: Down the rock- y ro- ad|all the way to Dub- lin.|Whack fol- lol- lo le lol- lo le|rah.|||In Mul- lin- gar that night I|
w: ||||||Took a drop of the pure to|
 E2 A [EA]2 B [Ac]2 d | [ce]2 e [Ad]2 B [EA]2 G | [GB]2 G [DG]2 A [GB]2 d :: %20
w: rest- ed limbs so wear- y.|Start- ed by day- light me|spir- its bright and air- y.|
w: keep me heart from sink- ing.|That's the Pad- dy's cure when-|e- ver he's for drink- ing.|
 .e.ea [ea]2 f [dg]2 e | [ce]2 a [ea]2 f [dg]2 e | [ce]2 a [ea]2 f [dg]2 e | [Bd]2 B [DG]2 A BAG :| %24
w: To see the lass- ies smile, *|laugh- ing all the while- oh|at me curi- ous style 'twould|set your heart a bub- bl- ing.|
w: Ask- ed if I was hired. *|Wa- ges I re- quired till|I was near- ly tired ofthe|rock- y road to Dub- b- lin.|
 .[ce]2 e [Ad]2 B [EA]2 G | E2 A [EA]2 B [Ac]2 d | .[ce]2 e [Ad]2 B [EA]2 G | %27
w: One, two three, four, five, *|hunt the hare and turn her.|Down the rock- y ro- ad|
w: |||
 E2 A [EA]2 B [Ac]2 d | [Be]2 e ddB GEB | [EA]8 z | z9 | z9 |: .e.ee [Ad]2 B [EG]2 A | %33
w: all the way to Dub- lin.|Whack fol- lol- lo le lol- lo le|rah.|||In Dub- lin next arr- ived I|
w: |||||Well then I took a stroll *|
 E2 A [EA]2 B [Ac]2 d | .e.ee [Ad]2 B [EA]2 G | ABG [DG]2 A [GB]2 d :: .e.ea [ea]2 f [dg]2 e | %37
w: thought it such a pi- ty.|To be so soon dep- rived of|a view of that fine ci- ty.|So- me- thing crossed me mind, *|
w: all a- mong the qualit- y.|Bu- n- dle it was stole *|all in the neat loc- alit- y.|En- quir- in' for the rogue, *|
 [ce]2 a [ea]2 f [dg]2 e | [ce]2 a [ea]2 f [dg]2 e | [Bd]2 B [DG]2 A BAG :| %40
w: when I looked be- hind. No|bun- dle could I find u-|pon me stick a wob- bl- in'.|
w: said me Conn- acht brogue, it|was- n't much in vogue, onthe|rock- y road to Dub- l- in.|
 .[ce]2 e [Ad]2 B [EA]2 G | E2 A [EA]2 B [Ac]2 d | .[ce]2 e [Ad]2 B [EA]2 G | %43
w: One, two three, four, five, *|hunt the hare and turn her.|Down the rock- y ro- ad|
w: |||
 E2 A [EA]2 B [Ac]2 d | [Be]2 e ddB GEB | [EA]8 z | z9 | z9 |: .e.ee [Ad]2 B [EG]2 A | %49
w: all the way to Dub- lin.|Whack fol- lol- lo le lol- lo le|rah.|||From there I got a- way me|
w: |||||The cap- tain at me roared, *|
 E2 A [EA]2 B [Ac]2 d | .e.ee [Ad]2 B [EA]2 G | ABG [DG]2 A [GB]2 d :: .e.ea [ea]2 f [dg]2 e | %53
w: spir- its ne- ver fail- in'.|La- nd- ed on the quay, *|just as the ship was sail- ing.|Down there a- mong the pigs, a|
w: said that no room had he.|But when I jumped a- board *|a cab- in found for Pad- dy.|Wish- ed me- self was dead, or|
 [ce]2 a [ea]2 f [dg]2 e | [ce]2 a [ea]2 f [dg]2 e | [Bd]2 B [DG]2 A BAG :| %56
w: played some fu- nny rigs. *|Danced some hear- ty jigs the|wa- ter round me bub- b- lin'|
w: bet- ter far in- stead. *|Laid up- on a bed or|on the road to Dub- l- in.|
 .[ce]2 e [Ad]2 B [EA]2 G | E2 A [EA]2 B [Ac]2 d | .[ce]2 e [Ad]2 B [EA]2 G | %59
w: One, two three, four, five, *|hunt the hare and turn her.|Down the rock- y ro- ad|
w: |||
 E2 A [EA]2 B [Ac]2 d | [Be]2 e ddB GEB | [EA]8 z | z9 | z9 |] %64
w: all the way to Dub- lin.|Whack fol- lol- lo le lol- lo le|rah.|||
w: |||||
V:5
|:"_A" .A,,2"_Am" .[A,CE]"_E" .E,,2"_Am" .[A,CE]"_A" .A,,2"_Am" .[A,CE] | %1
"_A" .A,,2"_Am" .[A,CE]"_E" .E,,2"_Am" .[A,CE]"_A" .A,,2"_Am" .[A,CE] | %2
"_A" .A,,2"_Am" .[A,CE]"_E" .E,,2"_Am" .[A,CE]"_A" .A,,2"_Am" .[A,CE] | %3
"_G" .G,,2"_GM" .[G,B,D]"_D" .D,,2"_GM" .[G,B,D]"_G" .G,,2"_GM" .[G,B,D] :: %4
"_A" .A,,2"_Am" .[A,CE]"_E" .E,,2"_Am" .[A,CE]"_G" .G,,2"_GM" .[G,B,D] | %5
"_A" .A,,2"_Am" .[A,CE]"_E" .E,,2"_Am" .[A,CE]"_G" .G,,2"_GM" .[G,B,D] | %6
"_A" .A,,2"_Am" .[A,CE]"_E" .E,,2"_Am" .[A,CE]"_G" .G,,2"_GM" .[G,B,D] | %7
"_G" .G,,2"_GM" .[G,B,D]"_D" .D,,2"_GM" .[G,B,D]"_G" .G,,2"_GM" .[G,B,D] :| %8
"_A" .A,,2"_Am" .[A,CE]"_E" .E,,2"_Am" .[A,CE]"_A" .A,,2"_Am" .[A,CE] | %9
"_A" .A,,2"_Am" .[A,CE]"_E" .E,,2"_Am" .[A,CE]"_A" .A,,2"_Am" .[A,CE] | %10
"_A" .A,,2"_Am" .[A,CE]"_E" .E,,2"_Am" .[A,CE]"_A" .A,,2"_Am" .[A,CE] | %11
"_A" .A,,2"_Am" .[A,CE]"_E" .E,,2"_Am" .[A,CE]"_A" .A,,2"_Am" .[A,CE] | %12
"_G" .G,,2"_GM" .[G,B,D]"_D" .D,,2"_GM" .[G,B,D]"_G" .G,,2"_GM" .[G,B,D] | %13
"_A" .A,,2"_Am" .[A,CE]"_E" .E,,2"_Am" .[A,CE]"_A" .A,,2"_Am" .[A,CE] | %14
"_A" .A,,2"_Am" .[A,CE]"_E" .E,,2"_Am" .[A,CE]"_A" .A,,2"_Am" .[A,CE] | %15
"_A" .A,,2"_Am" .[A,CE]"_E" .E,,2"_Am" .[A,CE]"_A" .A,,2"_Am" .[A,CE] |: %16
"_A" .A,,2"_Am" .[A,CE]"_E" .E,,2"_Am" .[A,CE]"_A" .A,,2"_Am" .[A,CE] | %17
"_A" .A,,2"_Am" .[A,CE]"_E" .E,,2"_Am" .[A,CE]"_A" .A,,2"_Am" .[A,CE] | %18
"_A" .A,,2"_Am" .[A,CE]"_E" .E,,2"_Am" .[A,CE]"_A" .A,,2"_Am" .[A,CE] | %19
"_G" .G,,2"_GM" .[G,B,D]"_D" .D,,2"_GM" .[G,B,D]"_G" .G,,2"_GM" .[G,B,D] :: %20
"_A" .A,,2"_Am" .[A,CE]"_E" .E,,2"_Am" .[A,CE]"_G" .G,,2"_GM" .[G,B,D] | %21
"_A" .A,,2"_Am" .[A,CE]"_E" .E,,2"_Am" .[A,CE]"_G" .G,,2"_GM" .[G,B,D] | %22
"_A" .A,,2"_Am" .[A,CE]"_E" .E,,2"_Am" .[A,CE]"_G" .G,,2"_GM" .[G,B,D] | %23
"_G" .G,,2"_GM" .[G,B,D]"_D" .D,,2"_GM" .[G,B,D]"_G" .G,,2"_GM" .[G,B,D] :| %24
"_A" .A,,2"_Am" .[A,CE]"_E" .E,,2"_Am" .[A,CE]"_A" .A,,2"_Am" .[A,CE] | %25
"_A" .A,,2"_Am" .[A,CE]"_E" .E,,2"_Am" .[A,CE]"_A" .A,,2"_Am" .[A,CE] | %26
"_A" .A,,2"_Am" .[A,CE]"_E" .E,,2"_Am" .[A,CE]"_A" .A,,2"_Am" .[A,CE] | %27
"_A" .A,,2"_Am" .[A,CE]"_E" .E,,2"_Am" .[A,CE]"_A" .A,,2"_Am" .[A,CE] | %28
"_G" .G,,2"_GM" .[G,B,D]"_D" .D,,2"_GM" .[G,B,D]"_G" .G,,2"_GM" .[G,B,D] | %29
"_A" .A,,2"_Am" .[A,CE]"_E" .E,,2"_Am" .[A,CE]"_A" .A,,2"_Am" .[A,CE] | %30
"_A" .A,,2"_Am" .[A,CE]"_E" .E,,2"_Am" .[A,CE]"_A" .A,,2"_Am" .[A,CE] | %31
"_A" .A,,2"_Am" .[A,CE]"_E" .E,,2"_Am" .[A,CE]"_A" .A,,2"_Am" .[A,CE] |: %32
"_A" .A,,2"_Am" .[A,CE]"_E" .E,,2"_Am" .[A,CE]"_A" .A,,2"_Am" .[A,CE] | %33
"_A" .A,,2"_Am" .[A,CE]"_E" .E,,2"_Am" .[A,CE]"_A" .A,,2"_Am" .[A,CE] | %34
"_A" .A,,2"_Am" .[A,CE]"_E" .E,,2"_Am" .[A,CE]"_A" .A,,2"_Am" .[A,CE] | %35
"_G" .G,,2"_GM" .[G,B,D]"_D" .D,,2"_GM" .[G,B,D]"_G" .G,,2"_GM" .[G,B,D] :: %36
"_A" .A,,2"_Am" .[A,CE]"_E" .E,,2"_Am" .[A,CE]"_G" .G,,2"_GM" .[G,B,D] | %37
"_A" .A,,2"_Am" .[A,CE]"_E" .E,,2"_Am" .[A,CE]"_G" .G,,2"_GM" .[G,B,D] | %38
"_A" .A,,2"_Am" .[A,CE]"_E" .E,,2"_Am" .[A,CE]"_G" .G,,2"_GM" .[G,B,D] | %39
"_G" .G,,2"_GM" .[G,B,D]"_D" .D,,2"_GM" .[G,B,D]"_G" .G,,2"_GM" .[G,B,D] :| %40
"_A" .A,,2"_Am" .[A,CE]"_E" .E,,2"_Am" .[A,CE]"_A" .A,,2"_Am" .[A,CE] | %41
"_A" .A,,2"_Am" .[A,CE]"_E" .E,,2"_Am" .[A,CE]"_A" .A,,2"_Am" .[A,CE] | %42
"_A" .A,,2"_Am" .[A,CE]"_E" .E,,2"_Am" .[A,CE]"_A" .A,,2"_Am" .[A,CE] | %43
"_A" .A,,2"_Am" .[A,CE]"_E" .E,,2"_Am" .[A,CE]"_A" .A,,2"_Am" .[A,CE] | %44
"_G" .G,,2"_GM" .[G,B,D]"_D" .D,,2"_GM" .[G,B,D]"_G" .G,,2"_GM" .[G,B,D] | %45
"_A" .A,,2"_Am" .[A,CE]"_E" .E,,2"_Am" .[A,CE]"_A" .A,,2"_Am" .[A,CE] | %46
"_A" .A,,2"_Am" .[A,CE]"_E" .E,,2"_Am" .[A,CE]"_A" .A,,2"_Am" .[A,CE] | %47
"_A" .A,,2"_Am" .[A,CE]"_E" .E,,2"_Am" .[A,CE]"_A" .A,,2"_Am" .[A,CE] |: %48
"_A" .A,,2"_Am" .[A,CE]"_E" .E,,2"_Am" .[A,CE]"_A" .A,,2"_Am" .[A,CE] | %49
"_A" .A,,2"_Am" .[A,CE]"_E" .E,,2"_Am" .[A,CE]"_A" .A,,2"_Am" .[A,CE] | %50
"_A" .A,,2"_Am" .[A,CE]"_E" .E,,2"_Am" .[A,CE]"_A" .A,,2"_Am" .[A,CE] | %51
"_G" .G,,2"_GM" .[G,B,D]"_D" .D,,2"_GM" .[G,B,D]"_G" .G,,2"_GM" .[G,B,D] :: %52
"_A" .A,,2"_Am" .[A,CE]"_E" .E,,2"_Am" .[A,CE]"_G" .G,,2"_GM" .[G,B,D] | %53
"_A" .A,,2"_Am" .[A,CE]"_E" .E,,2"_Am" .[A,CE]"_G" .G,,2"_GM" .[G,B,D] | %54
"_A" .A,,2"_Am" .[A,CE]"_E" .E,,2"_Am" .[A,CE]"_G" .G,,2"_GM" .[G,B,D] | %55
"_G" .G,,2"_GM" .[G,B,D]"_D" .D,,2"_GM" .[G,B,D]"_G" .G,,2"_GM" .[G,B,D] :| %56
"_A" .A,,2"_Am" .[A,CE]"_E" .E,,2"_Am" .[A,CE]"_A" .A,,2"_Am" .[A,CE] | %57
"_A" .A,,2"_Am" .[A,CE]"_E" .E,,2"_Am" .[A,CE]"_A" .A,,2"_Am" .[A,CE] | %58
"_A" .A,,2"_Am" .[A,CE]"_E" .E,,2"_Am" .[A,CE]"_A" .A,,2"_Am" .[A,CE] | %59
"_A" .A,,2"_Am" .[A,CE]"_E" .E,,2"_Am" .[A,CE]"_A" .A,,2"_Am" .[A,CE] | %60
"_G" .G,,2"_GM" .[G,B,D]"_D" .D,,2"_GM" .[G,B,D]"_G" .G,,2"_GM" .[G,B,D] | %61
"_A" .A,,2"_Am" .[A,CE]"_E" .E,,2"_Am" .[A,CE]"_A" .A,,2"_Am" .[A,CE] | %62
"_A" .A,,2"_Am" .[A,CE]"_E" .E,,2"_Am" .[A,CE]"_A" .A,,2"_Am" .[A,CE] | %63
"_A" .A,,2"_Am" .[A,CE]"_E" .E,,2"_Am" .[A,CE]"_A" .A,,2"_Am" .[A,CE] |] %64

